assets/img/braze_icons/key-01.svg

<svg fill="none" height="24" viewBox="0 0 24 24" width="24" xmlns="http://www.w3.org/2000/svg"><path clip-rule="evenodd" d="m14.9999 2c-3.8659 0-6.99995 3.13401-6.99995 7 0 .31836.02132.63228.06272.94028.03025.22502.04901.36582.05892.46842.00177.0183.00302.0333.0039.0454l-.00889.0099c-.04871.0535-.11871.1238-.24463.2498l-5.1105 5.1105-.03616.036c-.13465.1339-.30419.3026-.43064.5089-.10966.179-.19047.3741-.23946.5781-.0565.2354-.05586.4745-.05536.6644l.0001.051-.00001 1.7692c-.00003.2524-.00006.4982.01695.7063.01868.2286.06275.4984.20104.7698.19175.3763.49771.6823.87404.874.27142.1383.54115.1824.76975.2011.20812.017.45386.0169.70619.0169h2.43204c.55228 0 1-.4477 1-1v-1h1c.55228 0 1-.4477 1-1v-1h.99995c.2653 0 .5196-.1054.7072-.2929l1.5791-1.5791c.1259-.1259.1963-.1959.2497-.2447l.0099-.0088c.0121.0008.0271.0021.0454.0039.1027.0099.2435.0286.4685.0589.308.0414.6219.0627.9402.0627 3.866 0 7-3.134 7-7 0-3.86599-3.134-7-7-7zm.0002 5.99981c.2575 0 .5116.09744.7071.2929.1955.19545.2929.44961.2929.70707 0 .55229.4477.99999 1 .99998.5523-.00002 1-.44775 1-1.00003 0-.76619-.2931-1.53567-.8787-2.12124-.5856-.58559-1.3551-.87868-2.1213-.87868-.5523 0-1 .44772-1 1 0 .55229.4477 1 1 1z" fill="#801ed7" fill-rule="evenodd"/></svg>

<svg width="24" height="24" viewBox="0 0 24 24" fill="none" xmlns="http://www.w3.org/2000/svg">
<path fill-rule="evenodd" clip-rule="evenodd" d="M14.9999 2C11.134 2 7.99995 5.13401 7.99995 9C7.99995 9.31836 8.02127 9.63228 8.06267 9.94028C8.09292 10.1653 8.11168 10.3061 8.12159 10.4087C8.12336 10.427 8.12461 10.442 8.12549 10.4541L8.1166 10.464C8.06789 10.5175 7.99789 10.5878 7.87197 10.7138L2.76147 15.8243L2.72531 15.8603C2.59066 15.9942 2.42112 16.1629 2.29467 16.3692C2.18501 16.5482 2.1042 16.7433 2.05521 16.9473C1.99871 17.1827 1.99935 17.4218 1.99985 17.6117L1.99995 17.6627L1.99994 19.4319C1.99991 19.6843 1.99988 19.9301 2.01689 20.1382C2.03557 20.3668 2.07964 20.6366 2.21793 20.908C2.40968 21.2843 2.71564 21.5903 3.09197 21.782C3.36339 21.9203 3.63312 21.9644 3.86172 21.9831C4.06984 22.0001 4.31558 22 4.56791 22L6.99995 22C7.55223 22 7.99995 21.5523 7.99995 21V20H8.99995C9.55223 20 9.99995 19.5523 9.99995 19V18H10.9999C11.2652 18 11.5195 17.8946 11.7071 17.7071L13.2862 16.128C13.4121 16.0021 13.4825 15.9321 13.5359 15.8833L13.5458 15.8745C13.5579 15.8753 13.5729 15.8766 13.5912 15.8784C13.6939 15.8883 13.8347 15.907 14.0597 15.9373C14.3677 15.9787 14.6816 16 14.9999 16C18.8659 16 21.9999 12.866 21.9999 9C21.9999 5.13401 18.8659 2 14.9999 2ZM15.0001 7.99981C15.2576 7.99981 15.5117 8.09725 15.7072 8.29271C15.9027 8.48816 16.0001 8.74232 16.0001 8.99978C16.0001 9.55207 16.4478 9.99977 17.0001 9.99976C17.5524 9.99974 18.0001 9.55201 18.0001 8.99973C18.0001 8.23354 17.707 7.46406 17.1214 6.87849C16.5358 6.2929 15.7663 5.99981 15.0001 5.99981C14.4478 5.99981 14.0001 6.44753 14.0001 6.99981C14.0001 7.5521 14.4478 7.99981 15.0001 7.99981Z" fill="#801ED7"/>
</svg>
